X: 42
T: JIG: Have a Drink With Me
C: C: Trad.; S: Various
C: Set Leaders: Tania, Anton
Z: Anton Zille ed., Oleg Naumov arr.; Phantom Button at The Session
N: https://thesession.org/members/26966/sets/92421
R: Jig
M: 6/8
L: 1/8
Q: 3/8=116
K: Gmaj
|:"G"BAG EGD|"G"EGD "D"EGA|"G"BAG EGD|"C"EAG "D"ABc|
"G(Em)"BAG EGD|"G(Em)"EGD "D"EGA|"C"BAG EGD|1 "D"EGF G2A:|2 "D"EGF G2D||
|:"G"GBd e2d|"D"dgd B2A|"C"GBd edB|"D"cea aga|
"Em"bag age|"D"ged e/f/ge|"C"dBG AGA|1 "D"BGF G2D:|2 "D"BGF G2A||

